resources/icons/16px/phone-call.svg

<svg width="16" height="16" viewBox="0 0 16 16" fill="none" xmlns="http://www.w3.org/2000/svg">
<path fill-rule="evenodd" clip-rule="evenodd" d="M15.916 12.4099C15.8559 12.35 12.5432 10.4104 12.4331 10.3604C12.323 10.3104 12.2129 10.2804 12.1128 10.2804C11.9627 10.2804 11.7725 10.3904 11.5423 10.6004C11.3121 10.8203 10.6015 11.7901 10.3914 12C10.1812 12.22 10.011 12.32 9.87091 12.32C9.80086 12.32 9.72079 12.3 9.62071 12.26C9.52062 12.22 8.45973 11.6801 6.25788 9.74056C4.05603 7.81101 3.76579 6.54131 3.75578 6.19139C3.75578 6.05143 3.86587 5.88147 4.07605 5.67151C4.29623 5.46156 4.52643 5.26161 4.77664 5.07165C5.02685 4.8817 5.26705 4.67175 5.47722 4.4518C5.69741 4.22185 5.79749 4.0319 5.79749 3.88193C5.79749 3.77196 5.76747 3.67198 5.71743 3.56201C5.66738 3.46203 3.6657 0.152805 3.59564 0.0828209C3.44552 -0.0671441 2.85502 0.00283958 2.55477 0.162802C0.162761 1.4625 -0.0273989 3.20209 0.00262637 3.89193C0.04266 4.60176 0.493038 8.35089 4.16612 11.8401C8.72996 16.1691 11.9026 15.9991 12.1128 15.9991C12.8034 15.9991 14.9352 15.6192 15.8359 13.4497C15.966 13.1298 16.0861 12.5799 15.916 12.4099Z" fill="#111418"/>
<path fill-rule="evenodd" clip-rule="evenodd" d="M13 7C13 7.6 12.6 8 12 8C11.4 8 11 7.6 11 7C11 5.9 10.1 5 9 5C8.4 5 8 4.6 8 4C8 3.4 8.4 3 9 3C11.2 3 13 4.8 13 7Z" fill="#111418"/>
<path fill-rule="evenodd" clip-rule="evenodd" d="M16 7C16 7.6 15.6 8 15 8C14.4 8 14 7.6 14 7C14 4.2 11.8 2 9 2C8.4 2 8 1.6 8 0.999999C8 0.399999 8.4 -6.64413e-07 9 -6.11959e-07C12.9 -2.71011e-07 16 3.1 16 7Z" fill="#111418"/>
</svg>

<svg xmlns="http://www.w3.org/2000/svg" viewBox="0 0 16 16">
  <path d="M15.916 12.41c-.06-.06-3.373-2-3.483-2.05a.8.8 0 0 0-.32-.08c-.15 0-.34.11-.57.32-.23.22-.941 1.19-1.152 1.4-.21.22-.38.32-.52.32a.7.7 0 0 1-.25-.06c-.1-.04-1.161-.58-3.363-2.52-2.202-1.929-2.492-3.199-2.502-3.549 0-.14.11-.31.32-.52.22-.21.45-.41.7-.6s.491-.4.701-.62c.22-.23.32-.42.32-.57 0-.109-.03-.209-.08-.319-.05-.1-2.051-3.41-2.121-3.48-.15-.15-.741-.08-1.041.08-2.392 1.3-2.582 3.04-2.552 3.73.04.71.49 4.459 4.163 7.948C8.73 16.17 11.903 16 12.113 16c.69 0 2.822-.38 3.723-2.55.13-.32.25-.87.08-1.04"/>
  <path d="M13 7c0 .6-.4 1-1 1s-1-.4-1-1c0-1.1-.9-2-2-2-.6 0-1-.4-1-1s.4-1 1-1c2.2 0 4 1.8 4 4"/>
  <path d="M16 7c0 .6-.4 1-1 1s-1-.4-1-1c0-2.8-2.2-5-5-5-.6 0-1-.4-1-1s.4-1 1-1c3.9 0 7 3.1 7 7"/>
</svg>
